X:1
T:Bixby, 10.10.10.10
T:Bixby, 10.10.10.10
T:Samuel Merrill Bixby, 1892
T:Public Domain Courtesy of the Cyber Hymnal™
C:Samuel Merrill Bixby, 1892
Z:Public Domain
Z:Courtesy of the Cyber Hymnal™
%%score ( 1 2 ) ( 3 4 )
L:1/8
Q:1/4=108
M:6/8
K:Ab
V:1 treble 
V:2 treble 
V:3 bass 
V:4 bass 
V:1
 [CE]3 (=DE)[_B,F] | [CE]3 [CA]3 | (AG)[DA] (BA)[DF] | (E3 A3) | [EB]3 (Bc)[Ed] | c3- [Fc]2 [DB] | %6
 A2 [EA] (AB)[_Dc] | B6 | [CE]3 (=DE)[_B,F] | [CE]3 [CA]3 | (AG)[DA] (BA)[DF] | E6 | %12
 [DF]3 (FG)[DA] | E3 d3 | ([Ec][FB])[FA] E2 [EG] | [EA]6 |] %16
V:2
 x3 =B,2 x | x6 | D2 D2 x2 | C6 | x3 E2 x | E2 =E x3 | (CF) =D2 x2 | (E3 D3) | x3 =B,2 x | x6 | %10
 D2 D2 x2 | (C3 E3) | x3 D2 x | E3 (F2 E) | x3 E2 x | x6 |] %16
V:3
 [A,,E,]3 (F,E,)[A,,=D,] | [A,,E,]3 [A,,E,]3 | [D,F,]2 [D,F,] (=E,F,)[D,A,] | (A,3 E,3) | %4
 [E,G,]3 G,A,[E,B,] | A,2 ([G,B,] [F,A,]2) [=E,G,] | F,2 [F,C] [B,,B,]2 [B,,A,] | [E,,E,G,]6 | %8
 (A,2 E,) (F,E,)[A,,=D,] | [A,,E,]3 (E,2 =E,) | [D,F,]2 [D,F,] (=E,F,)[D,A,] | A,6 | %12
 [D,A,]3 (A,G,)[D,F,] | [C,A,]3 (F,2 G,) | [C,A,][D,D][=D,C] [E,C]2 [E,B,=D] | [A,,C]6 |] %16
V:4
 x3 A,,2 x | x6 | x3 D,2 x | A,,6 | x3 E,2 x | A,2 x4 | F,2 x4 | x6 | A,,3 A,,2 x | x3 A,,3 | %10
 x3 D,2 x | (A,,3 C,3) | x3 D,2 x | x3 B,,3 | x6 | x6 |] %16

